contributed-vectors/picsart.svg

<?xml version="1.0" encoding="UTF-8" standalone="no"?>
<svg
   xmlns:dc="http://purl.org/dc/elements/1.1/"
   xmlns:cc="http://creativecommons.org/ns#"
   xmlns:rdf="http://www.w3.org/1999/02/22-rdf-syntax-ns#"
   xmlns:svg="http://www.w3.org/2000/svg"
   xmlns="http://www.w3.org/2000/svg"
   xmlns:xlink="http://www.w3.org/1999/xlink"
   xmlns:sodipodi="http://sodipodi.sourceforge.net/DTD/sodipodi-0.dtd"
   xmlns:inkscape="http://www.inkscape.org/namespaces/inkscape"
   viewBox="0 0 192 192"
   version="1.1"
   id="svg16"
   sodipodi:docname="picsart.svg"
   inkscape:version="0.92.4 (5da689c313, 2019-01-14)">
  <metadata
     id="metadata20">
    <rdf:RDF>
      <cc:Work
         rdf:about="">
        <dc:format>image/svg+xml</dc:format>
        <dc:type
           rdf:resource="http://purl.org/dc/dcmitype/StillImage" />
        <dc:title></dc:title>
      </cc:Work>
    </rdf:RDF>
  </metadata>
  <sodipodi:namedview
     pagecolor="#ffffff"
     bordercolor="#666666"
     borderopacity="1"
     objecttolerance="10"
     gridtolerance="10"
     guidetolerance="10"
     inkscape:pageopacity="0"
     inkscape:pageshadow="2"
     inkscape:window-width="1920"
     inkscape:window-height="1017"
     id="namedview18"
     showgrid="true"
     inkscape:zoom="4.9166667"
     inkscape:cx="89.946031"
     inkscape:cy="93.67496"
     inkscape:window-x="-8"
     inkscape:window-y="-8"
     inkscape:window-maximized="1"
     inkscape:current-layer="svg16">
    <inkscape:grid
       type="xygrid"
       id="grid827"
       spacingx="4"
       spacingy="4" />
  </sodipodi:namedview>
  <defs
     id="defs4">
    <style
       id="style2">.a{fill:none;stroke:#b1b5bd;stroke-linecap:round;stroke-linejoin:round;isolation:isolate;opacity:0.63;}</style>
    <linearGradient
       id="linearGradient885"
       inkscape:collect="always">
      <stop
         id="stop881"
         offset="0"
         style="stop-color:#bd9aff;stop-opacity:1" />
      <stop
         style="stop-color:#728dbe;stop-opacity:1"
         offset="0.5"
         id="stop889" />
      <stop
         id="stop883"
         offset="1"
         style="stop-color:#96dfd3;stop-opacity:1" />
    </linearGradient>
    <style
       id="style2-5">.a{fill:none;stroke:#b1b5bd;stroke-linecap:round;stroke-linejoin:round;isolation:isolate;opacity:0.63;}</style>
    <linearGradient
       gradientUnits="userSpaceOnUse"
       y2="32"
       x2="160"
       y1="160"
       x1="32"
       id="linearGradient887"
       xlink:href="#linearGradient885"
       inkscape:collect="always" />
  </defs>
  <rect
     class="a"
     x="20"
     y="20"
     width="152"
     height="152"
     rx="10"
     id="rect6-5"
     style="opacity:1;isolation:isolate;fill:url(#linearGradient887);fill-opacity:1;stroke:none;stroke-linecap:round;stroke-linejoin:round" />
  <path
     style="opacity:1;vector-effect:none;fill:#ffffff;fill-opacity:1;fill-rule:evenodd;stroke:none;stroke-width:2;stroke-linecap:round;stroke-linejoin:round;stroke-miterlimit:4;stroke-dasharray:none;paint-order:stroke fill markers"
     d="M 98 60 C 83.596 60 72 71.596 72 86 C 72 100.404 83.596 112 98 112 C 112.404 112 124 100.404 124 86 C 124 71.596 112.404 60 98 60 z M 97.763672 72 L 98.236328 72 C 105.86087 72 112 78.13913 112 85.763672 L 112 86.236328 C 112 93.86087 105.86087 100 98.236328 100 L 97.763672 100 C 90.13913 100 84 93.86087 84 86.236328 L 84 85.763672 C 84 78.13913 90.13913 72 97.763672 72 z "
     id="rect860" />
  <rect
     style="opacity:1;vector-effect:none;fill:#ffffff;fill-opacity:1;fill-rule:evenodd;stroke:none;stroke-width:2;stroke-linecap:round;stroke-linejoin:round;stroke-miterlimit:4;stroke-dasharray:none;paint-order:stroke fill markers"
     id="rect862"
     width="12"
     height="48"
     x="72"
     y="84" />
</svg>

<svg xmlns="http://www.w3.org/2000/svg" xmlns:xlink="http://www.w3.org/1999/xlink" viewBox="0 0 192 192"><defs><linearGradient id="a"><stop offset="0" style="stop-color:#bd9aff;stop-opacity:1"/><stop offset=".5" style="stop-color:#728dbe;stop-opacity:1"/><stop offset="1" style="stop-color:#96dfd3;stop-opacity:1"/></linearGradient><linearGradient xlink:href="#a" id="b" x1="32" x2="160" y1="160" y2="32" gradientUnits="userSpaceOnUse"/></defs><rect width="152" height="152" x="20" y="20" rx="10" style="opacity:1;isolation:isolate;fill:url(#b);fill-opacity:1;stroke:none;stroke-linecap:round;stroke-linejoin:round"/><path d="M98 60c-14.404 0-26 11.596-26 26s11.596 26 26 26 26-11.596 26-26-11.596-26-26-26zm-.236 12h.472C105.861 72 112 78.14 112 85.764v.472C112 93.861 105.86 100 98.236 100h-.472A13.734 13.734 0 0 1 84 86.236v-.472C84 78.139 90.14 72 97.764 72z" style="opacity:1;vector-effect:none;fill:#fff;fill-opacity:1;fill-rule:evenodd;stroke:none;stroke-width:2;stroke-linecap:round;stroke-linejoin:round;stroke-miterlimit:4;stroke-dasharray:none;paint-order:stroke fill markers"/><path d="M72 84h12v48H72z" style="opacity:1;vector-effect:none;fill:#fff;fill-opacity:1;fill-rule:evenodd;stroke:none;stroke-width:2;stroke-linecap:round;stroke-linejoin:round;stroke-miterlimit:4;stroke-dasharray:none;paint-order:stroke fill markers"/></svg>
